svg/emoji_u1f995.svg

<svg width="128" height="128" viewBox="0 0 128 128" fill="none" xmlns="http://www.w3.org/2000/svg">
<path d="M34.9901 79.3401L29.5001 82.4401C29.5001 82.4401 30.0601 95.5301 28.5101 100.6C26.9601 105.67 24.7101 109.33 23.7201 110.74C22.7301 112.15 19.9201 113.24 21.0501 116.79C21.7201 118.89 24.8501 119.61 29.9201 119.46C34.9901 119.32 44.2801 112.56 44.2801 112.56L47.2401 97.9201L64.8401 104.68C64.8401 104.68 64.4201 106.93 64.1401 107.78C63.8601 108.62 62.1701 111.02 62.3101 112.28C62.4501 113.55 64.1101 114.29 72.0201 114.11C79.8001 113.93 81.1701 104.54 81.1701 104.54L74.6901 90.3201L34.9901 79.3401Z" fill="#00837B" style="fill:#00837B;fill:color(display-p3 0.0000 0.5125 0.4818);fill-opacity:1;"/>
<path d="M20.2999 11.4799C22.1399 10.7099 23.6299 3.82991 30.7199 4.90991C37.9499 6.00991 36.7299 12.1799 37.4799 12.9299C38.2299 13.6799 43.8699 15.6999 43.6899 20.0599C43.4999 24.3999 41.8999 28.2699 37.0099 29.1199C32.1199 29.9699 26.5899 28.1799 24.1499 28.8399C21.7099 29.4999 19.4599 32.1699 19.9299 36.4399C20.1999 38.8699 22.7699 51.8399 31.0999 58.6799C40.5799 66.4699 45.9299 66.0899 57.9399 66.6599C69.9499 67.2199 77.7899 69.1499 84.8799 75.4799C89.9299 79.9899 94.0899 92.6299 107.03 90.0299C118.95 87.6399 112.85 75.2999 104.87 73.5099C100.27 72.4799 95.8599 72.5699 95.7699 70.8799C95.6799 69.1899 99.1099 67.4699 105.11 67.7399C112.43 68.0699 123.36 73.7499 123.18 84.6799C123 95.3099 112.95 99.5099 112.95 99.5099L100.66 102.98L87.9799 105.09C87.9799 105.09 88.1599 107.21 89.5599 109.84C90.9599 112.47 92.6599 117.72 91.2099 120.47C90.2699 122.25 87.9399 122.9 81.5299 122.97C76.3099 123.03 71.5899 122.3 71.4299 120.33C71.2399 117.98 72.2599 117.15 73.6799 116.18C75.1799 115.15 74.9599 114.57 75.1599 113.01C75.3599 111.45 75.0599 108.57 74.6299 107.2C74.2099 105.86 72.9799 103.89 72.9799 103.89L50.3499 104.1C50.3499 104.1 49.9699 104.94 49.7899 108.6C49.5999 112.26 50.3399 117.37 49.6999 118.83C48.8099 120.85 46.1299 122.77 39.5599 122.87C32.9899 122.96 28.9499 121.37 29.2399 117.8C29.5199 114.23 32.2399 113.67 33.1799 112.07C34.1199 110.47 36.4199 104.8 36.6499 102.36C36.8499 100.29 36.4599 97.4299 36.5599 95.8399C36.6599 94.2499 33.0699 84.4999 33.0699 84.4999C33.0699 84.4999 25.5599 75.0199 22.2799 71.6399C19.2099 68.4799 13.1799 60.9399 13.1799 60.9399C13.1799 60.9399 4.72991 47.0499 5.75991 33.9099C6.78991 20.7699 13.5499 14.2999 20.2999 11.4799Z" fill="#02ABA1" style="fill:#02ABA1;fill:color(display-p3 0.0078 0.6706 0.6308);fill-opacity:1;"/>
<path d="M12.3299 32.25C15.3999 24.95 20.9899 22.82 23.5899 21.97C26.1899 21.12 31.4699 20.42 33.7299 20.07C35.9899 19.72 43.6499 19.23 43.6499 19.23C43.6499 19.23 43.8899 19.82 43.7899 21.02C43.6799 22.36 43.2299 23.03 43.2299 23.03C43.2299 23.03 34.7799 24.23 34.7799 25.78C34.7799 27.33 37.2399 27.19 38.2299 27.19C39.2199 27.19 41.1899 27.12 41.1899 27.12C41.1899 27.12 40.7299 28.46 38.1999 29.16C35.6899 29.86 31.8999 29.79 28.7299 29.93C25.5599 30.07 23.5199 30.63 22.6099 31.83C21.6899 33.03 18.2499 35.63 20.1499 49.29C22.0499 62.95 31.4499 78.17 33.6999 82.37C34.5099 83.88 37.2499 87.33 37.3999 88.6C37.4599 89.18 36.8099 90.51 36.5899 92.33C36.3299 94.5 36.4799 97.15 36.4799 97.15C36.4799 97.15 33.4399 93.18 32.1199 90.74C30.0099 86.87 29.5199 83.74 29.5199 83.74C29.5199 83.74 18.3299 72.94 13.2599 62.02C8.18994 51.1 9.36994 39.29 12.3299 32.25Z" fill="#46CE9D" style="fill:#46CE9D;fill:color(display-p3 0.2745 0.8078 0.6158);fill-opacity:1;"/>
<path d="M35.2001 18.3801C35.2301 19.9901 33.5301 21.2201 31.6501 20.7701C30.4501 20.4901 29.7201 19.4801 29.9601 17.8801C30.2001 16.2901 31.0701 15.2301 32.5301 15.0601C34.0401 14.9001 35.1701 16.2301 35.2001 18.3801Z" fill="#303030" style="fill:#303030;fill:color(display-p3 0.1882 0.1882 0.1882);fill-opacity:1;"/>
<path d="M49.8799 106.86C49.8799 106.86 49.6699 103.55 50.9399 101.9C51.5899 101.05 52.0699 100.56 52.0699 100.56C52.0699 100.56 58.9299 101.07 62.0299 101.16C65.8299 101.27 72.8699 101.02 72.8699 101.02C72.8699 101.02 73.1199 102.09 73.4699 103.59C73.8899 105.42 74.6299 107.25 74.6299 107.25C74.6299 107.25 68.5099 107.91 62.0999 107.81C55.0899 107.71 49.8799 106.86 49.8799 106.86Z" fill="#46CE9D" style="fill:#46CE9D;fill:color(display-p3 0.2745 0.8078 0.6158);fill-opacity:1;"/>
<path d="M87.1201 101.76C87.1201 101.76 87.4401 102.57 87.5801 103.38C87.7101 104.1 87.9001 105.17 87.9001 105.17C87.9001 105.17 98.9901 105.45 107.22 103.2C115.46 100.95 120.14 94.85 121.09 92.99C122.08 91.05 122.66 89.15 121.62 90.56C119.58 93.34 116.09 98.06 107.23 100.31C98.3701 102.56 87.1201 101.76 87.1201 101.76Z" fill="#46CE9D" style="fill:#46CE9D;fill:color(display-p3 0.2745 0.8078 0.6158);fill-opacity:1;"/>
<path d="M52.8065 77.8898C52.9911 76.6164 52.1085 75.4343 50.8351 75.2497C49.5616 75.065 48.3796 75.9476 48.195 77.2211C48.0103 78.4945 48.8929 79.6766 50.1664 79.8612C51.4398 80.0459 52.6218 79.1632 52.8065 77.8898Z" fill="#7CD5DB" style="fill:#7CD5DB;fill:color(display-p3 0.4863 0.8365 0.8588);fill-opacity:1;"/>
<path d="M62.3831 76.2187C62.6243 75.1352 62.007 74.0758 61.0043 73.8526C60.0016 73.6293 58.9932 74.3268 58.752 75.4104C58.5107 76.4939 59.128 77.5533 60.1307 77.7765C61.1334 77.9997 62.1418 77.3023 62.3831 76.2187Z" fill="#7CD5DB" style="fill:#7CD5DB;fill:color(display-p3 0.4863 0.8365 0.8588);fill-opacity:1;"/>
<path d="M72.5501 84.62C73.7762 84.62 74.7701 83.5948 74.7701 82.33C74.7701 81.0653 73.7762 80.04 72.5501 80.04C71.324 80.04 70.3301 81.0653 70.3301 82.33C70.3301 83.5948 71.324 84.62 72.5501 84.62Z" fill="#7CD5DB" style="fill:#7CD5DB;fill:color(display-p3 0.4863 0.8365 0.8588);fill-opacity:1;"/>
<path d="M69.19 76.5901C70.1178 76.5901 70.87 75.8021 70.87 74.8301C70.87 73.858 70.1178 73.0701 69.19 73.0701C68.2622 73.0701 67.51 73.858 67.51 74.8301C67.51 75.8021 68.2622 76.5901 69.19 76.5901Z" fill="#7CD5DB" style="fill:#7CD5DB;fill:color(display-p3 0.4863 0.8365 0.8588);fill-opacity:1;"/>
<path d="M62.3801 84.97C63.3521 84.97 64.1401 84.1327 64.1401 83.1C64.1401 82.0672 63.3521 81.23 62.3801 81.23C61.4081 81.23 60.6201 82.0672 60.6201 83.1C60.6201 84.1327 61.4081 84.97 62.3801 84.97Z" fill="#7CD5DB" style="fill:#7CD5DB;fill:color(display-p3 0.4863 0.8365 0.8588);fill-opacity:1;"/>
<path d="M80.1 78.7701C81.0057 78.7701 81.74 77.9463 81.74 76.9301C81.74 75.9139 81.0057 75.0901 80.1 75.0901C79.1942 75.0901 78.46 75.9139 78.46 76.9301C78.46 77.9463 79.1942 78.7701 80.1 78.7701Z" fill="#7CD5DB" style="fill:#7CD5DB;fill:color(display-p3 0.4863 0.8365 0.8588);fill-opacity:1;"/>
<path d="M82.6389 87.5266C83.4537 87.462 84.0629 86.7624 83.9996 85.9641C83.9363 85.1657 83.2243 84.571 82.4095 84.6356C81.5946 84.7003 80.9854 85.3999 81.0488 86.1982C81.1121 86.9965 81.824 87.5913 82.6389 87.5266Z" fill="#7CD5DB" style="fill:#7CD5DB;fill:color(display-p3 0.4863 0.8365 0.8588);fill-opacity:1;"/>
<path d="M43.3349 69.8115C43.5401 68.8613 43.0281 67.9446 42.1913 67.7638C41.3545 67.5831 40.5098 68.2069 40.3046 69.157C40.0994 70.1072 40.6115 71.0239 41.4482 71.2046C42.285 71.3854 43.1297 70.7616 43.3349 69.8115Z" fill="#7CD5DB" style="fill:#7CD5DB;fill:color(display-p3 0.4863 0.8365 0.8588);fill-opacity:1;"/>
<path d="M55.7943 69.6813C55.981 68.8063 55.4843 67.9587 54.6849 67.7881C53.8855 67.6175 53.0861 68.1886 52.8994 69.0636C52.7126 69.9386 53.2093 70.7862 54.0087 70.9568C54.8081 71.1274 55.6075 70.5564 55.7943 69.6813Z" fill="#7CD5DB" style="fill:#7CD5DB;fill:color(display-p3 0.4863 0.8365 0.8588);fill-opacity:1;"/>
</svg>

<?xml version="1.0" encoding="utf-8"?>
<!-- Generator: Adobe Illustrator 24.1.2, SVG Export Plug-In . SVG Version: 6.00 Build 0)  -->
<svg version="1.1" id="Layer_2" xmlns="http://www.w3.org/2000/svg" xmlns:xlink="http://www.w3.org/1999/xlink" x="0px" y="0px"
	 viewBox="0 0 128 128" style="enable-background:new 0 0 128 128;" xml:space="preserve">
<path style="fill:#FFFFFF;" d="M32.6,94.17"/>
<path style="fill:#04841F;" d="M34.99,79.34l-5.49,3.1c0,0,0.56,13.09-0.99,18.16c-1.55,5.07-3.8,8.73-4.79,10.14
	s-3.8,2.5-2.67,6.05c0.67,2.1,3.8,2.82,8.87,2.67c5.07-0.14,14.36-6.9,14.36-6.9l2.96-14.64l17.6,6.76c0,0-0.42,2.25-0.7,3.1
	c-0.28,0.84-1.97,3.24-1.83,4.5c0.14,1.27,1.8,2.01,9.71,1.83c7.78-0.18,9.15-9.57,9.15-9.57l-6.48-14.22L34.99,79.34z"/>
<path style="fill:#02AB47;" d="M20.3,11.48c1.84-0.77,3.33-7.65,10.42-6.57c7.23,1.1,6.01,7.27,6.76,8.02
	c0.75,0.75,6.39,2.77,6.21,7.13c-0.19,4.34-1.79,8.21-6.68,9.06s-10.42-0.94-12.86-0.28c-2.44,0.66-4.69,3.33-4.22,7.6
	c0.27,2.43,2.84,15.4,11.17,22.24c9.48,7.79,14.83,7.41,26.84,7.98c12.01,0.56,19.85,2.49,26.94,8.82
	c5.05,4.51,9.21,17.15,22.15,14.55c11.92-2.39,5.82-14.73-2.16-16.52c-4.6-1.03-9.01-0.94-9.1-2.63c-0.09-1.69,3.34-3.41,9.34-3.14
	c7.32,0.33,18.25,6.01,18.07,16.94c-0.18,10.63-10.23,14.83-10.23,14.83l-12.29,3.47l-12.68,2.11c0,0,0.18,2.12,1.58,4.75
	s3.1,7.88,1.65,10.63c-0.94,1.78-3.27,2.43-9.68,2.5c-5.22,0.06-9.94-0.67-10.1-2.64c-0.19-2.35,0.83-3.18,2.25-4.15
	c1.5-1.03,1.28-1.61,1.48-3.17c0.2-1.56-0.1-4.44-0.53-5.81c-0.42-1.34-1.65-3.31-1.65-3.31l-22.63,0.21c0,0-0.38,0.84-0.56,4.5
	c-0.19,3.66,0.55,8.77-0.09,10.23c-0.89,2.02-3.57,3.94-10.14,4.04c-6.57,0.09-10.61-1.5-10.32-5.07c0.28-3.57,3-4.13,3.94-5.73
	c0.94-1.6,3.24-7.27,3.47-9.71c0.2-2.07-0.19-4.93-0.09-6.52S33.07,84.5,33.07,84.5s-7.51-9.48-10.79-12.86
	c-3.07-3.16-9.1-10.7-9.1-10.7S4.73,47.05,5.76,33.91S13.55,14.3,20.3,11.48z"/>
<path style="fill:#BDCE46;" d="M12.33,32.25c3.07-7.3,8.66-9.43,11.26-10.28s7.88-1.55,10.14-1.9s9.92-0.84,9.92-0.84
	s0.24,0.59,0.14,1.79c-0.11,1.34-0.56,2.01-0.56,2.01s-8.45,1.2-8.45,2.75s2.46,1.41,3.45,1.41s2.96-0.07,2.96-0.07
	s-0.46,1.34-2.99,2.04c-2.51,0.7-6.3,0.63-9.47,0.77s-5.21,0.7-6.12,1.9c-0.92,1.2-4.36,3.8-2.46,17.46s11.3,28.88,13.55,33.08
	c0.81,1.51,3.55,4.96,3.7,6.23c0.06,0.58-0.59,1.91-0.81,3.73c-0.26,2.17-0.11,4.82-0.11,4.82s-3.04-3.97-4.36-6.41
	c-2.11-3.87-2.6-7-2.6-7s-11.19-10.8-16.26-21.72S9.37,39.29,12.33,32.25z"/>
<path style="fill:#303030;" d="M35.2,18.38c0.03,1.61-1.67,2.84-3.55,2.39c-1.2-0.28-1.93-1.29-1.69-2.89
	c0.24-1.59,1.11-2.65,2.57-2.82C34.04,14.9,35.17,16.23,35.2,18.38z"/>
<path style="fill:#BDCE46;" d="M49.88,106.86c0,0-0.21-3.31,1.06-4.96c0.65-0.85,1.13-1.34,1.13-1.34s6.86,0.51,9.96,0.6
	c3.8,0.11,10.84-0.14,10.84-0.14s0.25,1.07,0.6,2.57c0.42,1.83,1.16,3.66,1.16,3.66s-6.12,0.66-12.53,0.56
	C55.09,107.71,49.88,106.86,49.88,106.86z"/>
<path style="fill:#BDCE46;" d="M87.12,101.76c0,0,0.32,0.81,0.46,1.62c0.13,0.72,0.32,1.79,0.32,1.79s11.09,0.28,19.32-1.97
	c8.24-2.25,12.92-8.35,13.87-10.21c0.99-1.94,1.57-3.84,0.53-2.43c-2.04,2.78-5.53,7.5-14.39,9.75S87.12,101.76,87.12,101.76z"/>
<ellipse transform="matrix(0.1435 -0.9896 0.9896 0.1435 -33.491 116.4118)" style="fill:#7CDB8A;" cx="50.51" cy="77.55" rx="2.33" ry="2.33"/>
<ellipse transform="matrix(0.2173 -0.9761 0.9761 0.2173 -26.5924 118.4635)" style="fill:#7CDB8A;" cx="60.57" cy="75.81" rx="2.01" ry="1.86"/>
<ellipse style="fill:#7CDB8A;" cx="72.55" cy="82.33" rx="2.22" ry="2.29"/>
<ellipse style="fill:#7CDB8A;" cx="69.19" cy="74.83" rx="1.68" ry="1.76"/>
<ellipse style="fill:#7CDB8A;" cx="62.38" cy="83.1" rx="1.76" ry="1.87"/>
<ellipse style="fill:#7CDB8A;" cx="80.1" cy="76.93" rx="1.64" ry="1.84"/>
<ellipse transform="matrix(0.9969 -0.0791 0.0791 0.9969 -6.549 6.7954)" style="fill:#7CDB8A;" cx="82.52" cy="86.08" rx="1.48" ry="1.45"/>
<ellipse transform="matrix(0.2111 -0.9775 0.9775 0.2111 -34.9251 95.6961)" style="fill:#7CDB8A;" cx="41.82" cy="69.48" rx="1.76" ry="1.55"/>
<ellipse transform="matrix(0.2087 -0.978 0.978 0.2087 -24.8379 108.0394)" style="fill:#7CDB8A;" cx="54.34" cy="69.37" rx="1.62" ry="1.48"/>
</svg>
